actions/22/go-next.svg

<?xml version="1.0" encoding="UTF-8" standalone="no"?>
<!-- Created with Inkscape (http://www.inkscape.org/) -->

<svg
   xmlns:dc="http://purl.org/dc/elements/1.1/"
   xmlns:cc="http://creativecommons.org/ns#"
   xmlns:rdf="http://www.w3.org/1999/02/22-rdf-syntax-ns#"
   xmlns:svg="http://www.w3.org/2000/svg"
   xmlns="http://www.w3.org/2000/svg"
   xmlns:xlink="http://www.w3.org/1999/xlink"
   xmlns:inkscape="http://www.inkscape.org/namespaces/inkscape"
   version="1.0"
   width="22"
   height="22"
   id="svg2594">
  <metadata
     id="metadata25">
    <rdf:RDF>
      <cc:Work
         rdf:about="">
        <dc:format>image/svg+xml</dc:format>
        <dc:type
           rdf:resource="http://purl.org/dc/dcmitype/StillImage" />
      </cc:Work>
    </rdf:RDF>
  </metadata>
  <defs
     id="defs2596">
    <linearGradient
       id="linearGradient5105-262-943-861">
      <stop
         id="stop2487"
         style="stop-color:#0d0d0d;stop-opacity:1"
         offset="0" />
      <stop
         id="stop2489"
         style="stop-color:#0d0d0d;stop-opacity:0"
         offset="1" />
    </linearGradient>
    <radialGradient
       cx="11.25"
       cy="19.03125"
       r="8.0625"
       fx="11.25"
       fy="19.03125"
       id="radialGradient2526"
       xlink:href="#linearGradient5105-262-943-861"
       gradientUnits="userSpaceOnUse"
       gradientTransform="matrix(1,0,0,0.282946,0,13.64644)" />
    <linearGradient
       id="linearGradient2264">
      <stop
         id="stop2266"
         style="stop-color:#d7e866;stop-opacity:1"
         offset="0" />
      <stop
         id="stop2268"
         style="stop-color:#8cab2a;stop-opacity:1"
         offset="1" />
    </linearGradient>
    <linearGradient
       x1="22.181572"
       y1="14.499924"
       x2="22.181572"
       y2="44.051018"
       id="linearGradient2532"
       xlink:href="#linearGradient2264"
       gradientUnits="userSpaceOnUse"
       gradientTransform="matrix(-0.5165267,0,0,0.5333212,23.457374,-0.7415553)" />
    <linearGradient
       id="linearGradient4222">
      <stop
         id="stop4224"
         style="stop-color:#ffffff;stop-opacity:1"
         offset="0" />
      <stop
         id="stop4226"
         style="stop-color:#ffffff;stop-opacity:0"
         offset="1" />
    </linearGradient>
    <linearGradient
       x1="28.62199"
       y1="18.218788"
       x2="28.62199"
       y2="49.56282"
       id="linearGradient2529"
       xlink:href="#linearGradient4222"
       gradientUnits="userSpaceOnUse"
       gradientTransform="matrix(0.599071,0,0,0.6156931,-3.2320316,-3.9814102)" />
    <linearGradient
       x1="28.62199"
       y1="18.218788"
       x2="28.62199"
       y2="49.56282"
       id="linearGradient2395"
       xlink:href="#linearGradient4222"
       gradientUnits="userSpaceOnUse"
       gradientTransform="matrix(0.599071,0,0,0.6156931,-4.2320317,-4.9814106)" />
    <linearGradient
       x1="22.181572"
       y1="14.499924"
       x2="22.181572"
       y2="44.051018"
       id="linearGradient2397"
       xlink:href="#linearGradient2264"
       gradientUnits="userSpaceOnUse"
       gradientTransform="matrix(-0.5165267,0,0,0.5333212,22.457374,-1.7415557)" />
    <radialGradient
       cx="11.25"
       cy="19.03125"
       r="8.0625"
       fx="11.25"
       fy="19.03125"
       id="radialGradient2399"
       xlink:href="#linearGradient5105-262-943-861"
       gradientUnits="userSpaceOnUse"
       gradientTransform="matrix(1,0,0,0.282946,0,13.64644)" />
  </defs>
  <g
     id="layer1">
    <path
       d="m 19.3125,19.03125 a 8.0625,2.28125 0 1 1 -16.125,0 8.0625,2.28125 0 1 1 16.125,0 z"
       inkscape:connector-curvature="0"
       transform="matrix(1.3643411,0,0,1.0958904,-4.3488373,-1.3561648)"
       id="path2621"
       style="opacity:0.16292138;fill:url(#radialGradient2399);fill-opacity:1;fill-rule:nonzero;stroke:none;stroke-width:1;marker:none;visibility:visible;display:inline;overflow:visible" />
    <path
       d="M 9.4999999,0.48844846 21.511552,11.026409 9.4999999,21.511552 l 0,-5.011552 -9.01155146,0 0,-11.0000004 9.01155146,0 0,-5.01155114 z"
       inkscape:connector-curvature="0"
       id="path2624"
       style="fill:url(#linearGradient2397);fill-opacity:1;fill-rule:nonzero;stroke:#699536;stroke-width:0.97689688;stroke-linecap:round;stroke-linejoin:round;stroke-miterlimit:4;stroke-opacity:1;stroke-dasharray:none;stroke-dashoffset:0;marker:none;visibility:visible;display:inline;overflow:visible" />
    <path
       d="M 10.5,2.5938357 20.017235,11 10.5,19.363535 10.5,15.5 l -9.0000001,0 0,-9.0000004 9.0000001,0 0,-3.9061639 z"
       inkscape:connector-curvature="0"
       id="path2626"
       style="opacity:0.35400008;fill:none;stroke:url(#linearGradient2395);stroke-width:1;stroke-linecap:butt;stroke-linejoin:miter;stroke-miterlimit:4;stroke-opacity:1;stroke-dasharray:none;stroke-dashoffset:0;marker:none;visibility:visible;display:inline;overflow:visible" />
  </g>
</svg>

<?xml version="1.0" encoding="UTF-8" standalone="no"?>
<!-- Created with Inkscape (http://www.inkscape.org/) -->
<svg
   xmlns:svg="http://www.w3.org/2000/svg"
   xmlns="http://www.w3.org/2000/svg"
   xmlns:xlink="http://www.w3.org/1999/xlink"
   version="1.0"
   width="22"
   height="22"
   id="svg2594">
  <defs
     id="defs2596">
    <linearGradient
       id="linearGradient5105-262-943-861">
      <stop
         id="stop2487"
         style="stop-color:#0d0d0d;stop-opacity:1"
         offset="0" />
      <stop
         id="stop2489"
         style="stop-color:#0d0d0d;stop-opacity:0"
         offset="1" />
    </linearGradient>
    <radialGradient
       cx="11.25"
       cy="19.03125"
       r="8.0625"
       fx="11.25"
       fy="19.03125"
       id="radialGradient2526"
       xlink:href="#linearGradient5105-262-943-861"
       gradientUnits="userSpaceOnUse"
       gradientTransform="matrix(1,0,0,0.282946,0,13.64644)" />
    <linearGradient
       id="linearGradient2264">
      <stop
         id="stop2266"
         style="stop-color:#d7e866;stop-opacity:1"
         offset="0" />
      <stop
         id="stop2268"
         style="stop-color:#8cab2a;stop-opacity:1"
         offset="1" />
    </linearGradient>
    <linearGradient
       x1="22.181572"
       y1="14.499924"
       x2="22.181572"
       y2="44.051018"
       id="linearGradient2532"
       xlink:href="#linearGradient2264"
       gradientUnits="userSpaceOnUse"
       gradientTransform="matrix(-0.5165267,0,0,0.5333212,23.457374,-0.7415553)" />
    <linearGradient
       id="linearGradient4222">
      <stop
         id="stop4224"
         style="stop-color:#ffffff;stop-opacity:1"
         offset="0" />
      <stop
         id="stop4226"
         style="stop-color:#ffffff;stop-opacity:0"
         offset="1" />
    </linearGradient>
    <linearGradient
       x1="28.62199"
       y1="18.218788"
       x2="28.62199"
       y2="49.56282"
       id="linearGradient2529"
       xlink:href="#linearGradient4222"
       gradientUnits="userSpaceOnUse"
       gradientTransform="matrix(0.599071,0,0,0.6156931,-3.2320316,-3.9814102)" />
    <linearGradient
       x1="28.62199"
       y1="18.218788"
       x2="28.62199"
       y2="49.56282"
       id="linearGradient2395"
       xlink:href="#linearGradient4222"
       gradientUnits="userSpaceOnUse"
       gradientTransform="matrix(0.599071,0,0,0.6156931,-4.2320317,-4.9814106)" />
    <linearGradient
       x1="22.181572"
       y1="14.499924"
       x2="22.181572"
       y2="44.051018"
       id="linearGradient2397"
       xlink:href="#linearGradient2264"
       gradientUnits="userSpaceOnUse"
       gradientTransform="matrix(-0.5165267,0,0,0.5333212,22.457374,-1.7415557)" />
    <radialGradient
       cx="11.25"
       cy="19.03125"
       r="8.0625"
       fx="11.25"
       fy="19.03125"
       id="radialGradient2399"
       xlink:href="#linearGradient5105-262-943-861"
       gradientUnits="userSpaceOnUse"
       gradientTransform="matrix(1,0,0,0.282946,0,13.64644)" />
  </defs>
  <g
     id="layer1">
    <path
       d="M 19.3125,19.03125 A 8.0625,2.28125 0 1 1 3.1875,19.03125 A 8.0625,2.28125 0 1 1 19.3125,19.03125 z"
       transform="matrix(1.3643411,0,0,1.0958904,-4.3488373,-1.3561648)"
       id="path2621"
       style="opacity:0.16292138;fill:url(#radialGradient2399);fill-opacity:1;fill-rule:nonzero;stroke:none;stroke-width:1;stroke-linecap:butt;stroke-linejoin:miter;marker:none;marker-start:none;marker-mid:none;marker-end:none;stroke-miterlimit:4;stroke-dasharray:none;stroke-dashoffset:0;stroke-opacity:1;visibility:visible;display:inline;overflow:visible" />
    <path
       d="M 9.4999999,0.48844846 L 21.511552,11.026409 L 9.4999999,21.511552 L 9.4999999,16.5 L 0.48844844,16.5 L 0.48844844,5.4999996 L 9.4999999,5.4999996 L 9.4999999,0.48844846 z"
       id="path2624"
       style="fill:url(#linearGradient2397);fill-opacity:1;fill-rule:nonzero;stroke:#699536;stroke-width:0.97689688;stroke-linecap:round;stroke-linejoin:round;marker:none;marker-start:none;marker-mid:none;marker-end:none;stroke-miterlimit:4;stroke-dasharray:none;stroke-dashoffset:0;stroke-opacity:1;visibility:visible;display:inline;overflow:visible" />
    <path
       d="M 10.5,2.5938357 L 20.017235,11 L 10.5,19.363535 L 10.5,15.5 L 1.4999999,15.5 L 1.4999999,6.4999996 L 10.5,6.4999996 L 10.5,2.5938357 z"
       id="path2626"
       style="opacity:0.35400002;fill:none;fill-opacity:1;fill-rule:nonzero;stroke:url(#linearGradient2395);stroke-width:1;stroke-linecap:butt;stroke-linejoin:miter;marker:none;marker-start:none;marker-mid:none;marker-end:none;stroke-miterlimit:4;stroke-dasharray:none;stroke-dashoffset:0;stroke-opacity:1;visibility:visible;display:inline;overflow:visible" />
  </g>
</svg>
